X:1140
T:Princess of Wales's Reel.
M:C|
L:1/8
Q:1/4=96
N:each part printed as ending with a crotchet
Z:Jack Campin * www.campin.me.uk * 2009
K:D
(A/B//c//)|d>FA>F d>FA>F|d>FA>F E/E/E E2 |  F/G/A AA    B/c/d de |cA`Bc  d3      :|
(e/f//g//)|f>Ad>A f>Ad>A|f>Ad>A g>A```e>g|  f>A```d>A   f>A```d>f|e>dc>B A/A/A AA |
           B<dA<d G<dF<d|G<dA<d B/B/B BB |(3AFD   D>D (3dBG   G>F|E>DEF  D/D/D D |]

